!!!!SEGMENT: pl-kk--kk-i-360--003_anonim--sanguine-proprio.krn
!!!cenid: 17xx:1959
!!!COM: Anonim
!!!COM-rismid: pe30004985
!!!CDT:
!!!CNT:
!!!OTL: Sanguine proprio
!!!PDT:
!!!AGN: Sacred
!!!SMS-siglum: PL-Kk
!!!SMS-shelfmark: Kk.I.360
!!!SMS-shelfwork: 003 W
!!!SMS-variant:
!!!SMS-altvar:
!!!NIFC-rismid: 1001143881
!!!URL-scan: http://repozytorium.nifc.pl/skany/pl-kk-nut--i-360
!!!ONB-nifc: UWAGA: utwory w zbiorze: 1. Rorate coeli, 2. Quoniam rex noster, 3. Sanguine proprio, 4. Per merita Sancti Adalberti
!!!key:
**kern	**text	**text	**kern	**text	**text	**kern	**text	**text	**kern	**text	**text	**kern	**text	**text
*part5	*part5	*part5	*part4	*part4	*part4	*part3	*part3	*part3	*part2	*part2	*part2	*part1	*part1	*part1
*staff5	*staff5	*staff5	*staff4	*staff4	*staff4	*staff3	*staff3	*staff3	*staff2	*staff2	*staff2	*staff1	*staff1	*staff1
*Iempty	*	*	*Ialto	*	*	*Ialto	*	*	*Ialto	*	*	*Ivox	*	*
*I"[Basso]	*	*	*I"[Alto 3]	*	*	*I"[Alto 2]	*	*	*I"[Alto 1]	*	*	*I"[Canto]	*	*
*I'[B]	*	*	*I'[A 3]	*	*	*I'[A 2]	*	*	*I'[A 1]	*	*	*I'[C]	*	*
*clefF4	*	*	*clefC3	*	*	*clefC3	*	*	*clefC3	*	*	*clefC2	*	*
*k[]	*	*	*k[]	*	*	*k[]	*	*	*k[]	*	*	*k[]	*	*
*C:	*	*	*C:	*	*	*C:	*	*	*C:	*	*	*C:	*	*
*M2/1	*	*	*M2/1	*	*	*M2/1	*	*	*M2/1	*	*	*M2/1	*	*
*met(c|)	*	*	*met(c|)	*	*	*met(c|)	*	*	*met(c|)	*	*	*met(c|)	*	*
=1-	=1-	=1-	=1-	=1-	=1-	=1-	=1-	=1-	=1-	=1-	=1-	=1-	=1-	=1-
!LO:TX:a:t=P:problem=s. 12	!	!	!LO:TX:a:t=P:problem=s. 10	!	!	!LO:TX:a:t=P:problem=s. 8	!	!	!LO:TX:a:t=P:problem=s. 6	!	!	!LO:TX:a:t=P:s.4:problem	!	!
1D\	San-	.	1r	.	.	2r	.	.	0r	.	.	0r	.	.
.	.	.	.	.	.	1d\	San-	.	.	.	.	.	.	.
1G\	-gui-	.	1G/	San-	.	.	.	.	.	.	.	.	.	.
.	.	.	.	.	.	1g\	-gui-	.	.	.	.	.	.	.
=2-	=2-	=2-	=2-	=2-	=2-	=2-	=2-	=2-	=2-	=2-	=2-	=2-	=2-	=2-
2G\	-ne	.	1d\	-gui-	.	.	.	.	2r	.	.	1r	.	.
1B\	pro-	.	.	.	.	2g\	-ne	.	1G/	San-	.	.	.	.
.	.	.	1d\	-ne	.	2g\	pro-	.	.	.	.	1d/	San-	.
2G\	-pri-	.	.	.	.	2G/	-pri-	.	1d\	-gui-	.	.	.	.
=3-	=3-	=3-	=3-	=3-	=3-	=3-	=3-	=3-	=3-	=3-	=3-	=3-	=3-	=3-
0D\	-o	.	1f\	pro-	.	0A/	-o	.	.	.	.	1a\	-gui-	.
.	.	.	.	.	.	.	.	.	2d\	-ne	.	.	.	.
.	.	.	1d\	-pri-	.	.	.	.	2.f\	pro-	.	1a\	-ne	.
.	.	.	.	.	.	.	.	.	4g\	.	.	.	.	.
=4-	=4-	=4-	=4-	=4-	=4-	=4-	=4-	=4-	=4-	=4-	=4-	=4-	=4-	=4-
1r	.	.	1c\	-o	.	1r	.	.	4a\	.	.	1cc\	pro-	.
.	.	.	.	.	.	.	.	.	4g\	.	.	.	.	.
.	.	.	.	.	.	.	.	.	1g\	.	.	.	.	.
1D\	re-	.	1d\	re-	.	2.A/	re-	.	.	.	.	1a\	-prio	.
.	.	.	.	.	.	.	.	.	2f\	-prio	.	.	.	.
.	.	.	.	.	.	4B/	.	.	.	.	.	.	.	.
=5-	=5-	=5-	=5-	=5-	=5-	=5-	=5-	=5-	=5-	=5-	=5-	=5-	=5-	=5-
2A\	-de-	.	1c\	-de-	.	2c/	-de-	.	2e\	re-	.	2a\	re-	.
2F\	-mi-	.	.	.	.	2A/	-mi-	.	2f\	-de-	.	2a\	-de-	.
1G\	-ſti	.	1B/	-mi-	.	2B/	-sti	.	2d\	-mi-	.	2.g\	-mi-	.
.	.	.	.	.	.	2G/	nos	.	2e\	-ſti	.	.	.	.
.	.	.	.	.	.	.	.	.	.	.	.	4g\	-sti	.
=6-	=6-	=6-	=6-	=6-	=6-	=6-	=6-	=6-	=6-	=6-	=6-	=6-	=6-	=6-
1F\	nos	.	1A/	-ſti	.	2c/	De-	.	2f\	nos	.	2a\	nos	.
.	.	.	.	.	.	2A/	-(us)	.	4c\	.	.	2f\	.	.
.	.	.	.	.	.	.	.	.	4d\	.	.	.	.	.
0E\	De-	.	1B/	nos	.	0G/	il-	.	0e\	De-	.	1.g\	De-	.
=7-	=7-	=7-	=7-	=7-	=7-	=7-	=7-	=7-	=7-	=7-	=7-	=7-	=7-	=7-
.	.	.	1c\	De-	.	.	.	.	.	.	.	.	.	.
.	.	.	.	.	.	.	.	.	.	.	.	4f\	.	.
.	.	.	.	.	.	.	.	.	.	.	.	4e\	.	.
2D/	-us	.	2d\	-(us)	.	1d\	-luc	.	1A/	-(us)	.	1f#X\,	-(us)	.
1D\	il-	.	1f\	il-	.	.	.	.	.	.	.	.	.	.
=8-	=8-	=8-	=8-	=8-	=8-	=8-	=8-	=8-	=8-	=8-	=8-	=8-	=8-	=8-
.	.	.	.	.	.	1d\	et	.	2r	.	.	1d/	Il-	.
2G\	-luc	.	2g\	-luc	.	.	.	.	2B/	il-	.	.	.	.
2F\	et	.	2a\	et	.	1f\	re-	.	2c/	-luc	.	1a\	-luc	.
2.D/	re-	.	4d\	re-	.	.	.	.	2d\	et	.	.	.	.
.	.	.	4e\	.	.	.	.	.	.	.	.	.	.	.
=9-	=9-	=9-	=9-	=9-	=9-	=9-	=9-	=9-	=9-	=9-	=9-	=9-	=9-	=9-
.	.	.	4f\	.	.	1d\	-ue-	.	2A/	re-	.	1a\	et	.
4E\	.	.	4g\	.	.	.	.	.	.	.	.	.	.	.
4F\	.	.	1a\	.	.	.	.	.	1f\	-ue-	.	.	.	.
4G\	.	.	.	.	.	.	.	.	.	.	.	.	.	.
1A\	.	.	.	.	.	1c\	-bis	.	.	.	.	1cc\	re-	.
.	.	.	2a\	-ue-	.	.	.	.	2e\	.	.	.	.	.
=10-	=10-	=10-	=10-	=10-	=10-	=10-	=10-	=10-	=10-	=10-	=10-	=10-	=10-	=10-
1D\	-ue-	.	1f#X\	-bis	.	0d\	un-	.	2d\	-bis	.	1a\	-ve-	.
.	.	.	.	.	.	.	.	.	2A/	et	.	.	.	.
1G\	-bis	.	2r	.	.	.	.	.	2B/	re-	.	1g\	-bis	.
.	.	.	2g\	un-	.	.	.	.	2B/	-ue-	.	.	.	.
=11-	=11-	=11-	=11-	=11-	=11-	=11-	=11-	=11-	=11-	=11-	=11-	=11-	=11-	=11-
2r	.	.	2e\	-de	.	1c\	-de	.	1A/	-bis	.	1a\	un-	.
2F\	un-	.	2fny\	pri-	.	.	.	.	.	.	.	.	.	.
2G\	-de	.	1d\	-m(us)	.	1B/	pri-	.	2r	.	.	1g\	-de	.
2G\	pri-	.	.	.	.	.	.	.	2d\	un-	.	.	.	.
!!linebreak:original
=12-	=12-	=12-	=12-	=12-	=12-	=12-	=12-	=12-	=12-	=12-	=12-	=12-	=12-	=12-
2D/	-m(us)	.	2.c/	cor-	.	1A/	-m(us)	.	2a\	-de	.	1fny\	pri-	.
1F\	cor-	.	.	.	.	.	.	.	2a\	pri-	.	.	.	.
.	.	.	4B/	-nu-	.	.	.	.	.	.	.	.	.	.
.	.	.	2A/	-it	.	1c\	cor-	.	2f\	-m(us)	.	1e\	-m(us)	.
2C/	-nu-	.	2c/	pa-	.	.	.	.	1g\	cor-	.	.	.	.
=13-	=13-	=13-	=13-	=13-	=13-	=13-	=13-	=13-	=13-	=13-	=13-	=13-	=13-	=13-
1G\	-it	.	1B/	-ra-	.	1d\	-nu-	.	.	.	.	1g\	cor-	.
.	.	.	.	.	.	.	.	.	2d\	-nu-	.	.	.	.
*	*ij	*	*	*	*	*	*	*	*	*	*	*	*	*
1r	.	.	1A/	-di-	.	1c\	-it	.	1f\	-it	.	1a\	-nu-	.
=14-	=14-	=14-	=14-	=14-	=14-	=14-	=14-	=14-	=14-	=14-	=14-	=14-	=14-	=14-
1G\	un-	.	2.B/	-ſi-	.	0r	.	.	1d\	pa-	.	1g\	-it	.
.	.	.	8A/L	.	.	.	.	.	.	.	.	.	.	.
.	.	.	8G/J	.	.	.	.	.	.	.	.	.	.	.
*	*	*	*	*	*	*	*	*	*	*	*	*lig	*	*
2D/	-de	.	1A/	-co-	.	.	.	.	1.d\	-ra-	.	1f#X\	pa-	.
2D/	pri-	.	.	.	.	.	.	.	.	.	.	.	.	.
=15-	=15-	=15-	=15-	=15-	=15-	=15-	=15-	=15-	=15-	=15-	=15-	=15-	=15-	=15-
*	*	*	*	*	*	*lig	*	*	*	*	*	*	*	*
2G\	-m(us)	.	0G/	-la	.	1B/	pa-	.	.	.	.	1g\	.	.
2G\	cor-	.	.	.	.	.	.	.	2d\	-di-	.	.	.	.
*	*	*	*	*	*	*	*	*	*	*	*	*Xlig	*	*
2C/	-nu-	.	.	.	.	1c\	.	.	4e\	-si-	.	1e\	-ra-	.
.	.	.	.	.	.	.	.	.	4f\	.	.	.	.	.
2C/	-it	.	.	.	.	.	.	.	1g\	.	.	.	.	.
*	*Xij	*	*	*	*	*Xlig	*	*	*	*	*	*	*	*
=16-	=16-	=16-	=16-	=16-	=16-	=16-	=16-	=16-	=16-	=16-	=16-	=16-	=16-	=16-
1D\	pa-	.	1r	.	.	1A/	-ra-	.	.	.	.	1d/	-di-	.
.	.	.	.	.	.	.	.	.	2f\	-co-	.	.	.	.
2E\	-ra-	.	2r	.	.	1G/	-di-	.	1g\	-la	.	1c/	-si-	.
2E\	-di-	.	2G/	pa-	.	.	.	.	.	.	.	.	.	.
=17-	=17-	=17-	=17-	=17-	=17-	=17-	=17-	=17-	=17-	=17-	=17-	=17-	=17-	=17-
2D/	-si-	.	1A/	-ra-	.	1F/	-si-	.	1r	.	.	1d/	-co-	.
2D/	-co-	.	.	.	.	.	.	.	.	.	.	.	.	.
1GG/	-la	.	1.B/	-di-	.	1G/	-co-	.	2r	.	.	1d/	-la	.
.	.	.	.	.	.	.	.	.	1G/	iu-	.	.	.	.
=18-	=18-	=18-	=18-	=18-	=18-	=18-	=18-	=18-	=18-	=18-	=18-	=18-	=18-	=18-
1GG/	iu-	.	.	.	.	1G/	-la	.	.	.	.	2r	.	.
.	.	.	4A/	.	.	.	.	.	1d\	-dex	.	1g\	iu-	.
.	.	.	4G/	.	.	.	.	.	.	.	.	.	.	.
1D\	-dex	.	1A/	-ſi-	.	1r	.	.	.	.	.	.	.	.
.	.	.	.	.	.	.	.	.	2d\	d(um)	.	4fny\	-dex,	.
.	.	.	.	.	.	.	.	.	.	.	.	4e\	.	.
=19-	=19-	=19-	=19-	=19-	=19-	=19-	=19-	=19-	=19-	=19-	=19-	=19-	=19-	=19-
1D\	d(um)	.	2.F/	-[[co]]-	.	2r	.	.	2f\	Ve-	.	4d/	.	.
.	.	.	.	.	.	.	.	.	.	.	.	4e/	.	.
.	.	.	.	.	.	2D/	iu-	.	2d\	-ne-	.	2.f\	.	.
.	.	.	4G/	.	.	.	.	.	.	.	.	.	.	.
1F\	Ve-	.	4A/	.	.	1A/	-dex	.	2c/	-ris	.	.	.	.
.	.	.	4B/	.	.	.	.	.	.	.	.	4g\	.	.
.	.	.	2c/	-co-	.	.	.	.	2.f\	iu-	.	1a\	.	.
=20-	=20-	=20-	=20-	=20-	=20-	=20-	=20-	=20-	=20-	=20-	=20-	=20-	=20-	=20-
1D\	-ne-	.	1d\	-la	.	1A/	d(um)	.	.	.	.	.	.	.
.	.	.	.	.	.	.	.	.	4d\	-di-	.	.	.	.
.	.	.	.	.	.	.	.	.	2.f\	-ca	.	2f\	d(um)	.
1C/,	-ris	.	1G/	iu-	.	1c\	Ve-	.	.	.	.	2g\	ve-	.
.	.	.	.	.	.	.	.	.	4e\	.	.	.	.	.
.	.	.	.	.	.	.	.	.	2e\	re	.	2g\	-ne-	.
=21-	=21-	=21-	=21-	=21-	=21-	=21-	=21-	=21-	=21-	=21-	=21-	=21-	=21-	=21-
1D\	iu-	.	4d\	-dex	.	2.A/	.	.	2d\	.	.	1f\	-ris	.
.	.	.	4d\	dum	.	.	.	.	.	.	.	.	.	.
!	!	!	!	!	!	!	!	!	!	!LO:SIC:v:l:s=Sae-	!	!	!	!
.	.	.	1f\	ve-	.	.	.	.	4A/	Se-	.	.	.	.
.	.	.	.	.	.	8G/L	-ne-	.	4B/	.	.	.	.	.
.	.	.	.	.	.	8F/J	.	.	.	.	.	.	.	.
1C/	-di-	.	.	.	.	2G/	-ris	.	1c\	.	.	1r	.	.
.	.	.	2e\	-ne-	.	2A/	iu-	.	.	.	.	.	.	.
=22-	=22-	=22-	=22-	=22-	=22-	=22-	=22-	=22-	=22-	=22-	=22-	=22-	=22-	=22-
1BB/	-ca-	.	2d,\	-ris	.	4B/	-di-	.	2d\	.	.	2r	.	.
.	.	.	.	.	.	4c/	.	.	.	.	.	.	.	.
.	.	.	2d\	dum	.	4d/	-ca-	.	2B/	-cu-	.	2d/	iu-	.
.	.	.	.	.	.	4B/	.	.	.	.	.	.	.	.
1AA/	-re	.	2c/	ve-	.	4c\	.	.	1e\	-l(um)	.	2a\	-di-	.
.	.	.	.	.	.	4d\	.	.	.	.	.	.	.	.
.	.	.	2c/	-ne-	.	4e\	.	.	.	.	.	2a\	-ca-	.
.	.	.	.	.	.	4c\	.	.	.	.	.	.	.	.
!!linebreak:original
=23-	=23-	=23-	=23-	=23-	=23-	=23-	=23-	=23-	=23-	=23-	=23-	=23-	=23-	=23-
!LO:SIC:v:l:s=Sae-	!	!	!	!	!	!	!	!	!	!	!	!	!	!
1BB/	Se-	.	1B/	-ris	.	1d\	-re	.	0r	.	.	2g\	-re	.
!	!	!	!	!	!	!	!	!	!	!	!	!LO:SIC:v:l:s=Sae	!	!
.	.	.	.	.	.	.	.	.	.	.	.	2b#X\	Se-	.
*	*	*	*	*	*	*lig	*	*	*	*	*	*	*	*
!	!	!	!	!	!	!LO:SIC:v:l:s=Sae-	!	!	!	!	!	!	!	!
1C/	-cu-	.	2r	.	.	1f\	Se-	.	.	.	.	4a\	.	.
.	.	.	.	.	.	.	.	.	.	.	.	4g\	.	.
.	.	.	2c/	iu-	.	.	.	.	.	.	.	1a\	.	.
=24-	=24-	=24-	=24-	=24-	=24-	=24-	=24-	=24-	=24-	=24-	=24-	=24-	=24-	=24-
0D\	-lum	.	2A/	-di-	.	1.e\	.	.	1r	.	.	.	.	.
.	.	.	2B/	-ca-	.	.	.	.	.	.	.	4f\	.	.
.	.	.	.	.	.	.	.	.	.	.	.	4e\	.	.
!	!	!	!	!	!	!	!	!	!	!	!	!LO:TX:a:t=P:problem=# above	!	!
.	.	.	1A/	-re	.	.	.	.	2r	.	.	2f#X\	-cu-	.
*	*	*	*	*	*	*Xlig	*	*	*	*	*	*	*	*
.	.	.	.	.	.	2d\	-cu-	.	1d\	iu-	.	2f#\	-lum	.
=25-	=25-	=25-	=25-	=25-	=25-	=25-	=25-	=25-	=25-	=25-	=25-	=25-	=25-	=25-
*	*	*	*lig	*	*	*	*	*	*	*	*	*	*	*
!	!	!	!LO:SIC:v:l:s=Sae-	!	!	!	!	!	!	!	!	!	!	!
00r	.	.	1G/	Se-	.	2G/	-lum	.	.	.	.	1g\	.	.
!	!	!	!	!	!	!LO:SIC:v:l:s=Sae-	!	!	!	!	!	!	!	!
.	.	.	.	.	.	1g\	Se-	.	2d\	-di-	.	.	.	.
*	*	*	*col	*	*	*	*	*	*	*	*	*lig	*	*
!	!	!	!	!	!	!	!	!	!	!	!	!LO:SIC:v:l:s=Sae	!	!
.	.	.	2.d\	.	.	.	.	.	1.d\	-ca-	.	1a\	Se-	.
.	.	.	.	.	.	2f\	.	.	.	.	.	.	.	.
*	*	*	*Xlig	*	*	*	*	*	*	*	*	*	*	*
.	.	.	4d\	-cu-	.	.	.	.	.	.	.	.	.	.
*	*	*	*Xcol	*	*	*	*	*	*	*	*	*	*	*
=26-	=26-	=26-	=26-	=26-	=26-	=26-	=26-	=26-	=26-	=26-	=26-	=26-	=26-	=26-
.	.	.	2G/	-l(um)	.	4g\	.	.	.	.	.	1bny\	.	.
.	.	.	.	.	.	4f\	.	.	.	.	.	.	.	.
!	!	!	!LO:SIC:v:l:s=Sae-	!	!	!	!	!	!	!	!	!	!	!
.	.	.	2.g\	Se-	.	4e\	.	.	2G/	-re	.	.	.	.
.	.	.	.	.	.	4d\	.	.	.	.	.	.	.	.
*	*	*	*	*	*	*	*	*	*	*	*	*Xlig	*	*
.	.	.	.	.	.	2.c/	.	.	2r	.	.	2.cc\	.	.
.	.	.	4g\	-cu-	.	.	.	.	.	.	.	.	.	.
!	!	!	!	!	!	!	!	!	!LO:SIC:v:l:s=Sae-	!	!	!	!	!
.	.	.	2e\	-l(um)	.	.	.	.	1g\	Se-	.	.	.	.
.	.	.	.	.	.	4c/	-cu-	.	.	.	.	4b\	.	.
=27-	=27-	=27-	=27-	=27-	=27-	=27-	=27-	=27-	=27-	=27-	=27-	=27-	=27-	=27-
*	*	*	*	*	*	*	*	*	*	*	*	*lig	*	*
1D\	da	.	2r	.	.	1d\,	-l(um)	.	.	.	.	1a\	.	.
.	.	.	2d\	da	.	.	.	.	2f\	-cu-	.	.	.	.
*	*	*	*	*	*	*	*	*	*	*	*	*col	*	*
1G\	no-	.	1.B/	no-	.	1G/	da	.	1g\	-l(um)	.	2.b\	.	.
*	*	*	*	*	*	*	*	*	*	*	*	*Xlig	*	*
.	.	.	.	.	.	.	.	.	.	.	.	4b\	-cu-	.
*	*	*	*	*	*	*	*	*	*	*	*	*Xcol	*	*
=28-	=28-	=28-	=28-	=28-	=28-	=28-	=28-	=28-	=28-	=28-	=28-	=28-	=28-	=28-
2G\	-bis	.	.	.	.	1d\	no-	.	2r	.	.	1g\	-lum	.
1B\	quae-	.	2G/	-bis	.	.	.	.	2d\	da	.	.	.	.
.	.	.	2r	.	.	1d\	-bis	.	2f\	no-	.	2r	.	.
*	*	*	*	*ij	*	*	*	*	*	*	*	*	*	*
2G\	-ſu-	.	2B/	da	.	.	.	.	2g\	-bis	.	2d/	da	.
=29-	=29-	=29-	=29-	=29-	=29-	=29-	=29-	=29-	=29-	=29-	=29-	=29-	=29-	=29-
1F\	-m(us)	.	2c/	no-	.	1f\	quae-	.	2.a\	quae-	.	4a\	no-	.
.	.	.	.	.	.	.	.	.	.	.	.	4a\	-bis	.
.	.	.	2A/	-bis	.	.	.	.	.	.	.	1cc\	quae-	.
*	*	*	*	*Xij	*	*	*	*	*	*	*	*	*	*
.	.	.	.	.	.	.	.	.	4a\	-ſu-	.	.	.	.
1G\	ſem-	.	2B/	quae-	.	1d\	-su-	.	2g\	-m(us)	.	.	.	.
.	.	.	2G/	-ſu-	.	.	.	.	1g\	Sem-	.	2b\	-ſu-	.
=30-	=30-	=30-	=30-	=30-	=30-	=30-	=30-	=30-	=30-	=30-	=30-	=30-	=30-	=30-
2C/	-pi-	.	2G/	-m(us)	.	1c\,	-m(us)	.	.	.	.	2cc\	-m(us)	.
2F\	-ter-	.	2A/	Sem-	.	.	.	.	2f\	-pi-	.	2a\	Sem-	.
1BB-X/	-n(am)	.	2F/	-pi-	.	1d\	Sem-	.	2f\	-ter-	.	2b-X\	-pi-	.
.	.	.	2F/	-ter-	.	.	.	.	2f\	-n(am)	.	2b-\	-ter-	.
=31-	=31-	=31-	=31-	=31-	=31-	=31-	=31-	=31-	=31-	=31-	=31-	=31-	=31-	=31-
2.C/	re-	.	2c/	-n(am)	.	1c\	-pi-	.	2.e\	re-	.	1g\	-n(am)	.
.	.	.	4G/	re-	.	.	.	.	.	.	.	.	.	.
4C/	-qui-	.	4A/	.	.	.	.	.	4e\	-qui-	.	.	.	.
*	*	*	*	*	*	*	*	*	*	*	*	*lig	*	*
1G\	-em	.	4B/	.	.	1B/	-ter-	.	0d\	-em	.	1g\	re-	.
.	.	.	4G/	.	.	.	.	.	.	.	.	.	.	.
.	.	.	1g\	.	.	.	.	.	.	.	.	.	.	.
!!linebreak:original
=32-	=32-	=32-	=32-	=32-	=32-	=32-	=32-	=32-	=32-	=32-	=32-	=32-	=32-	=32-
2r	.	.	.	.	.	1A/	-n(am)	.	.	.	.	1.a\	.	.
!	!	!	!LO:SIC:v:t=custos e	!	!	!	!	!	!	!	!	!	!	!
2D/	in	.	2f\	-qui-	.	.	.	.	.	.	.	.	.	.
2.A\	San-	.	2e\	-em	.	1c\	re-	.	2r	.	.	.	.	.
*	*	*	*	*	*	*	*	*	*	*	*	*Xlig	*	*
.	.	.	1f\	Sem-	.	.	.	.	1A/	Sem-	.	2a\	-qui-	.
4G\	.	.	.	.	.	.	.	.	.	.	.	.	.	.
=33-	=33-	=33-	=33-	=33-	=33-	=33-	=33-	=33-	=33-	=33-	=33-	=33-	=33-	=33-
2F\	.	.	.	.	.	1d\	-qui-	.	.	.	.	2a\	-em	.
2G\	-cto-	.	2d\	-pi-	.	.	.	.	2B/	-pi-	.	2g\	in	.
2C/	-r(um)	.	2e\	-ter-	.	1c\	-em	.	2c/	-ter-	.	2g\	ſan-	.
2F\	in	.	2f\	-n(am)	.	.	.	.	2A/	-n(am)	.	2a\	-cto-	.
=34-	=34-	=34-	=34-	=34-	=34-	=34-	=34-	=34-	=34-	=34-	=34-	=34-	=34-	=34-
*	*	*	*lig	*	*	*	*	*	*	*	*	*	*	*
1G\	ſan-	.	1d\	re-	.	1B/	in	.	2.G/	re-	.	2bny\	-r(um)	.
.	.	.	.	.	.	.	.	.	.	.	.	2g\	Pa-	.
!	!	!	!	!	!	!	!	!	!LO:SIC:v:t=custos G	!	!	!	!	!
.	.	.	.	.	.	.	.	.	4G/	-qui-	.	.	.	.
*	*	*	*col	*	*	*	*	*	*	*	*	*	*	*
1C/	-cto-	.	2.e\	.	.	1c\	San-	.	1G/	-em	.	4a\	.	.
.	.	.	.	.	.	.	.	.	.	.	.	4g\	.	.
.	.	.	.	.	.	.	.	.	.	.	.	1g\	.	.
*	*	*	*Xlig	*	*	*	*	*	*	*	*	*	*	*
.	.	.	4e\	-qui-	.	.	.	.	.	.	.	.	.	.
*	*	*	*Xcol	*	*	*	*	*	*	*	*	*	*	*
=35-	=35-	=35-	=35-	=35-	=35-	=35-	=35-	=35-	=35-	=35-	=35-	=35-	=35-	=35-
1D\	-r(um)	.	1d\	-(em)	.	1A/	-cto-	.	2r	.	.	.	.	.
.	.	.	.	.	.	.	.	.	1d\	In	.	2f\	-tri-	.
1E\	Pa-	.	2r	.	.	1G/	-rum	.	.	.	.	1g\	-a	.
.	.	.	2G/	in	.	.	.	.	2c/	ſan-	.	.	.	.
=36-	=36-	=36-	=36-	=36-	=36-	=36-	=36-	=36-	=36-	=36-	=36-	=36-	=36-	=36-
1D\	-tri-	.	2A/	ſan-	.	1F/	Pa-	.	1d\	-cto-	.	2r	.	.
.	.	.	2A/	-cto-	.	.	.	.	.	.	.	1d/	Pa-	.
0GG/	-a	.	2B/	-r(um)	.	1G/	-tri-	.	0B/	-r(um)	.	.	.	.
.	.	.	2.d\	pa-	.	.	.	.	.	.	.	2g\	-tri-	.
=37-	=37-	=37-	=37-	=37-	=37-	=37-	=37-	=37-	=37-	=37-	=37-	=37-	=37-	=37-
.	.	.	.	.	.	1G/	-a	.	.	.	.	1g\	-a	.
.	.	.	4c\	.	.	.	.	.	.	.	.	.	.	.
.	.	.	4d\	-tri-	.	.	.	.	.	.	.	.	.	.
.	.	.	4e\	.	.	.	.	.	.	.	.	.	.	.
0r	.	.	1f\	-a	.	1F/	in	.	2.A/	pa-	.	1r	.	.
.	.	.	.	.	.	.	.	.	4B/	.	.	.	.	.
=38-	=38-	=38-	=38-	=38-	=38-	=38-	=38-	=38-	=38-	=38-	=38-	=38-	=38-	=38-
.	.	.	1F/	in	.	1A/	qua	.	2.c/	.	.	2r	.	.
.	.	.	.	.	.	.	.	.	.	.	.	1c/	in	.
.	.	.	.	.	.	.	.	.	4B/	.	.	.	.	.
2r	.	.	2A/	qua	.	1c\	ti-	.	2A/	-tri-	.	.	.	.
2C/	in	.	2c/	ti-	.	.	.	.	2G/	-a	.	2e/	qua	.
=39-	=39-	=39-	=39-	=39-	=39-	=39-	=39-	=39-	=39-	=39-	=39-	=39-	=39-	=39-
2E\	qua	.	2G/	-bi	.	1B/	-bi	.	2g\	in	.	2g\	ti-	.
2G\	ti-	.	2B/	ca-	.	.	.	.	2d\	qua	.	2g\	-bi	.
*	*	*	*	*	*	*lig	*	*	*	*	*	*	*	*
2.F\	-bi	.	2A/	-na-	.	1c\	ca-	.	1f\	ti-	.	2.a\	ca-	.
.	.	.	2A/	-m(us)	.	.	.	.	.	.	.	.	.	.
4E\	.	.	.	.	.	.	.	.	.	.	.	4a\	-na-	.
=40-	=40-	=40-	=40-	=40-	=40-	=40-	=40-	=40-	=40-	=40-	=40-	=40-	=40-	=40-
2.D/	ca-	.	2F/	in	al-	1d\	.	.	1f\	-bi	.	2a\	-m(us)	.
.	.	.	4A/	ae-	-le-	.	.	.	.	.	.	2f\	in	.
4E\	.	.	4G/	.	.	.	.	.	.	.	.	.	.	.
*	*	*	*	*	*	*Xlig	*	*	*	*	*	*	*	*
1F\	-na-	.	4A/	.	.	1A/	-na-	.	2r	.	.	4a\	ae-	al-
.	.	.	4B/	.	.	.	.	.	.	.	.	4g\	.	.
.	.	.	1c\	.	.	.	.	.	1f\	ca-	.	4a\	.	-le-
.	.	.	.	.	.	.	.	.	.	.	.	4b\	.	.
=41-	=41-	=41-	=41-	=41-	=41-	=41-	=41-	=41-	=41-	=41-	=41-	=41-	=41-	=41-
1C/	-m(us)	.	.	.	.	1G/	-m(us)	.	.	.	.	2cc\	.	.
.	.	.	2c/	-ter-	-lu-	.	.	.	2e\	.	.	2cc\	-ter-	-lu-
2r	.	.	2c/	-n(um)	-ia	1F/	.	.	1f\	-na-	.	1a\	-n(um)	-ia
*	*	*	*	*ij	*	*	*	*	*	*	*	*	*	*
2F\	In	al-	2c/	in	al-	.	.	.	.	.	.	.	.	.
!!pagebreak:original
=42-	=42-	=42-	=42-	=42-	=42-	=42-	=42-	=42-	=42-	=42-	=42-	=42-	=42-	=42-
4D/	ae-	-le-	2d\	ae-	-le-	1A/	in	al-	1f\	-m(us)	.	2f\	in	.
4C/	.	.	.	.	.	.	.	.	.	.	.	.	.	.
4D/	.	.	2d\	-ter-	-lu-	.	.	.	.	.	.	4a\	ae-	al-
4E/	.	.	.	.	.	.	.	.	.	.	.	4g\	.	.
2.F\	.	.	1c\	-n(um)	-ia	1A/	ae-	-le-	2r	.	.	4a\	.	-le-
*	*	*	*	*Xij	*	*	*	*	*	*	*	*	*	*
.	.	.	.	.	.	.	.	.	.	.	.	4b\	.	.
.	.	.	.	.	.	.	.	.	2c/	In	al-	2.cc\	-ter-	-lu-
4F\	-ter-	-lu-	.	.	.	.	.	.	.	.	.	.	.	.
=43-	=43-	=43-	=43-	=43-	=43-	=43-	=43-	=43-	=43-	=43-	=43-	=43-	=43-	=43-
1C/	-n(um)	-ia	2r	.	.	0c\	-ter-	-lu-	4e\	ae-	-le-	.	.	.
.	.	.	.	.	.	.	.	.	4d\	.	.	4cc\	-n(um)	.
*	*	*	*	*	*ij	*	*	*	*	*	*	*	*	*
.	.	.	2c/	in	al-	.	.	.	4e\	.	.	2cc\	.	-ia
.	.	.	.	.	.	.	.	.	4f\	.	.	.	.	.
*	*	*	*	*	*	*	*	*	*	*	*	*	*ij	*ij
2r	.	.	4e\	ae-	-le-	.	.	.	2g\	-ter-	-lu-	2c/	in	al-
.	.	.	4d\	.	.	.	.	.	.	.	.	.	.	.
2C/	in	al-	4e\	.	.	.	.	.	2g\	-n(um)	-ia	4e/	.	.
.	.	.	4f\	.	.	.	.	.	.	.	.	4d/	.	.
=44-	=44-	=44-	=44-	=44-	=44-	=44-	=44-	=44-	=44-	=44-	=44-	=44-	=44-	=44-
*	*	*	*	*	*	*	*	*	*	*ij	*	*	*	*
!	!	!	!	!	!	!LO:TX:t=P:problem=druga fermata na dole	!	!	!	!	!	!	!	!
4E\	ae-	-le-	2g\	.	.	[0G/l;	-num	-ia.	2G/	in	al-	4e\	.	.
4D\	.	.	.	.	.	.	.	.	.	.	.	4f\	.	.
4E\	.	.	2e\	.	.	.	.	.	4B/	ae-	-le-	2.g\	.	.
4F\	.	.	.	.	.	.	.	.	4A/	.	.	.	.	.
2.G\	.	.	2.d\	.	.	.	.	.	4B/	.	.	.	.	.
.	.	.	.	.	.	.	.	.	4c/	-ter-	-lu-	4a\	.	.
.	.	.	.	.	.	.	.	.	2d\	.	.	2b\	.	.
4G\	-ter-	-lu-	4d\	-ter-	-lu-	.	.	.	.	.	.	.	.	.
=45-	=45-	=45-	=45-	=45-	=45-	=45-	=45-	=45-	=45-	=45-	=45-	=45-	=45-	=45-
2C/	-n(um)	-ia	2c/	-n(um)	-ia	0G/_	.	.	2e\	.	.	2cc\	ae-	-le-
*	*ij	*ij	*	*	*	*	*	*	*	*	*	*	*	*
2G\	in	al-	2r	.	.	.	.	.	1d\	-n(um)	-ia	2.b\	-ter-	-lu-
*	*	*	*	*ij	*	*	*	*	*	*Xij	*	*	*	*
4B\	ae-	-le-	2G/	in	al-	.	.	.	.	.	.	.	.	.
4A\	.	.	.	.	.	.	.	.	.	.	.	4a\	.	.
4B\	.	.	4B/	ae-	-le-	.	.	.	2G/	in	al-	2g\	.	.
4c\	.	.	4A/	.	.	.	.	.	.	.	.	.	.	.
=46-	=46-	=46-	=46-	=46-	=46-	=46-	=46-	=46-	=46-	=46-	=46-	=46-	=46-	=46-
2.d\	.	.	4B/	.	.	0G/_	.	.	4B/	ae-	-le-	[0g\l;	-n(um)	-ja
*	*	*	*	*	*	*	*	*	*	*	*	*	*Xij	*Xij
.	.	.	4c/	.	.	.	.	.	4A/	.	.	.	.	.
.	.	.	2d\	.	.	.	.	.	4B/	.	.	.	.	.
4c\	.	.	.	.	.	.	.	.	4c/	.	.	.	.	.
2.B\	.	.	2.d\	-ter-	-lu-	.	.	.	2d\	.	.	.	.	.
.	.	.	.	.	.	.	.	.	4B/	.	.	.	.	.
4A\	.	.	4c\	.	.	.	.	.	4c/	.	.	.	.	.
=47-	=47-	=47-	=47-	=47-	=47-	=47-	=47-	=47-	=47-	=47-	=47-	=47-	=47-	=47-
4G\	.	.	4B\	.	.	0G/_	.	.	2d\	.	.	0g\_	.	.
4F\	.	.	4A\	.	.	.	.	.	.	.	.	.	.	.
4E\	.	.	2G/	.	.	.	.	.	2.e\	.	.	.	.	.
4D\	.	.	.	.	.	.	.	.	.	.	.	.	.	.
2C/	.	.	2g\	.	.	.	.	.	.	.	.	.	.	.
.	.	.	.	.	.	.	.	.	4d\	.	.	.	.	.
2C/	-ter-	-lu-	2e\	.	.	.	.	.	2c/	-ter-	-lu-	.	.	.
=48-	=48-	=48-	=48-	=48-	=48-	=48-	=48-	=48-	=48-	=48-	=48-	=48-	=48-	=48-
0GG/;	-n(um)	-ia	0B/;	-num	-ia	0G/]	.	.	0B/;	-n(um)	-ia.	0g\]	.	.
==	==	==	==	==	==	==	==	==	==	==	==	==	==	==
*-	*-	*-	*-	*-	*-	*-	*-	*-	*-	*-	*-	*-	*-	*-
!!!RDF**kern: l = terminal long
!!!system-decoration: s1,s2,s3,s4,s5
!!!EED: Andrzej Borzym
!!!EST: 2021-02-24
!!!AIN: 3 alto 1 empty 1 vox
!!!ENC: Andrzej Gręziak
!!!END: 2021-02-06
